X:303
T:Å vi ska gå te Skåne
T:Gånglåt efter Knut Persson (SvL Halland 303)
R:Gånglåt
O:Breared och Halmstad, Halland
S:Knut Persson
S:Ludvig Edvard Pålsson
B:Svenska Låtar Halland
M:C
L:1/8
K:D
A2|A3 d d3 d|f4  e3 d|d3 c c3 d|e3 A A3 A|A4 A4|
w:Å vi ska gå te Skå-ne och trös-ka för vårt brö-de-nar-da så, hej
c2 e g3 b|a3 c c3 c|c4 A4|c3 e g3 b|a3 d d3 d|d6||
w:li-rum la-rum laj-se-nar-do så, hej li-rum la-rum laj-se-nar-do så.

